!!!COA: Haydn, Franz Joseph
!!!CDT: 1732/03/31-1809/05/31
!!!CNT: Austrian
!!!OTL: Sonata No. 12 in A major
!!!SCT: Hob. XVI:12
!!!OMV: 2
!!!OMD: MENUETTO.
!!!ODT: ~1750-1755
**kern	**kern	**dynam
*staff2	*staff1	*staff1/2
*Ipiano	*Ipiano	*Ipiano
*>[A,A,B,B,C,C,D,D,A,B]	*>[A,A,B,B,C,C,D,D,A,B]	*>[A,A,B,B,C,C,D,D,A,B]
*>norep[A,B,C,D,A,B]	*>norep[A,B,C,D,A,B]	*>norep[A,B,C,D,A,B]
*>A	*>A	*>A
*clefF4	*clefG2	*clefG2
*k[f#c#g#]	*k[f#c#g#]	*k[f#c#g#]
*A:	*A:	*A:
*M3/4	*M3/4	*M3/4
*MM128	*MM128	*MM128
=1	=1	=1
4AA 4A	(4a	mf
!	!LO:TUP:a	!
4r	12cc#L	.
.	12b	.
.	12aJ	.
(4c#	4ee)	.
=2	=2	=2
!	!LO:TUP:a	!
4B	(12ddL	.
.	12ee	.
.	12ff#J	.
4G#	4b)	.
4E	4dd'	.
=3	=3	=3
!	!LO:TUP:a	!
4A	(12cc#L	.
.	12dd	.
.	12eeJ	.
4c#)	4a)	.
.	(16qqbbP	.
(4A	(8aapL)	.
.	16gg#L	.
.	16ff#JJ	.
=4	=4	=4
.	4qqeeP	.
4B	2ddTp	.
4E	.	.
.	16qcc#LL	.
.	16qddJJ	.
4A)	4cc#)	.
=5	=5	=5
*	*Xtuplet	*
4r	(12aaL	.
.	12bb	.
.	12ccc#J	.
4r	12bbL	.
.	12aa	.
.	12gg#J	.
*clefG2	*	*
(4d#	12ff#L	.
.	12gg#	.
.	12aaJ	.
=6	=6	=6
4e	12gg#L	.
.	12ff#	.
.	12eeJ	.
4f#	12dd#L	.
.	12cc#	.
.	12bJ	.
4g#)	4ee)	.
=7	=7	=7
4r	(12aaL	.
.	12bb	.
.	12ccc#J	.
4r	12bbL	.
.	12aa	.
.	12gg#J	.
*clefF4	*	*
(4D#	12ff#L	.
.	12gg#	.
.	12aaJ	.
!!LO:LB:g=z
=8	=8	=8
4E	12gg#L	.
.	12aa	.
.	12bbJ	.
4F#	12dd#L	.
.	12ee	.
.	12ff#J	.
4G#	4ee)	.
=9	=9	=9
.	(y16qqdd#P	.
4A	(8cc#pL)	.
.	16bL	.
.	16aJJ	.
4B	4g#)	.
4BB	(4f#T	.
=10	=10	=10
4E')	2e)	.
4BB'	.	.
4EE'	4r	.
=11:|!|:	=11:|!|:	=11:|!|:
*>B	*>B	*>B
2EE 2E	(4e	p
.	12g#L	.
.	12f#	.
.	12eJ	.
(4G#	4ddn)	.
=12	=12	=12
4A	(12cc#L	.
.	12dd	.
.	12eeJ	.
4B	4g#)	.
4c#)	4a'	.
*clefG2	*	*
=13	=13	=13
4r	(12ff#L	.
.	12gg#	.
.	12aaJ	.
(4cc#	4ee)	.
4a	4cc#'	.
=14	=14	=14
4b	(12ddL	.
.	12ee	.
.	12ff#J	.
4g#	4dd)	.
4a)	4cc#'	.
=15	=15	=15
(2d 2f#	(8cc#L	.
.	8bJ	.
.	12ff#L	.
.	12ee	.
.	12ddJ	.
4d#	12cc#L	.
.	12b	.
.	12aJ)	.
=16	=16	=16
.	(4qqaP	.
4e)	2.g#p)	.
*clefF4	*	*
4B'	.	.
4E'	.	.
!!LO:LB:g=z
=17	=17	=17
4AA 4A	(4a	mf
4r	12cc#L	.
.	12b	.
.	12aJ	.
(4c#	4ee)	.
=18	=18	=18
4B	(12ddL	.
.	12ee	.
.	12ff#J	.
4G#	4b)	.
4E	4dd'	.
=19	=19	=19
4A	(12cc#L	.
.	12dd	.
.	12eeJ	.
4c#)	4a)	.
.	(16qqbbP	.
(4A	(8aaLLp)	.
.	16gg#	.
.	16ff#JJ	.
=20	=20	=20
4B	4ee	.
4E	4ddT	.
.	16qcc#LL	.
.	16qddJJ	.
4A)	4cc#)	.
=21	=21	=21
2D 2d	4ff#	.
.	(12dddL	f
.	12ccc#	.
.	12bbJ	.
4r	12aaL	.
.	12gg#	.
.	12ff#J	.
=22	=22	=22
2C# 2c#	12eeL	.
.	12ff#	.
.	12gg#J	.
.	12aaL	.
.	12gg#	.
.	12ff#J	.
4r	12eeL	.
.	12dd	.
.	12cc#J	.
=23	=23	=23
(4D 4d	12bL	.
.	12dd	.
.	12ff#J	.
4E 4c#)	4a	.
(4E 4B	(4g#t	.
.	16qf#LL	.
.	16qg#JJ	.
=24	=24	=24
4A)	2a))	.
4E'	.	.
4AA'	4r	.
!!LO:LB:g=z
!	!LO:TX:i:c:rj:t=Fine.	!
=25:|!	=25:|!	=25:|!
*>C	*>C	*>C
*k[]	*k[]	*k[]
*a:	*a:	*a:
*M3/4	*M3/4	*M3/4
!!!OMD: TRIO.\nMinore.
*^	*	*
4r	2.A	8r	p
.	.	(4cc	.
(4e	.	.	.
.	.	4b	.
[4f	.	.	.
.	.	8a)	.
=26	=26	=26	=26
4f]	2.G#	8r	.
.	.	(4b	.
4d#	.	.	.
.	.	4bb	.
4e)	.	.	.
.	.	8ee)	.
=27	=27	=27	=27
4rg	2.Gn	8r	.
.	.	(4b/	.
(4d#	.	.	.
.	.	4a	.
[4e	.	.	.
.	.	8g)	.
=28	=28	=28	=28
4e]	2.F#	8r	.
.	.	(4a	.
4c#	.	.	.
.	.	4aa	.
4dn)	.	.	.
.	.	8dd)	.
=29	=29	=29	=29
4re	2.Fn	8r	.
.	.	(4a	.
(4c#	.	.	.
.	.	4g	.
4d)	.	.	.
.	.	8f)	.
=30	=30	=30	=30
4re	2.E	8r	.
.	.	(4g	.
(4B	.	.	.
.	.	4gg	.
4cn)	.	.	.
.	.	8cc)	.
=31	=31	=31	=31
4re	2.E	8r	.
.	.	(4gg	.
(4B	.	.	.
.	.	4g	.
[4c	.	.	.
.	.	8b-	.
!!LO:LB:g=z
=32	=32	=32	=32
4c]	2.F	8a)	.
.	.	(4aa	.
4c#	.	.	.
.	.	4a	.
[4d)	.	.	.
.	.	8cc	.
=33	=33	=33	=33
4d]	2.G	8bn)	<
.	.	(4bb	.
(4d#	.	.	.
.	.	4b	.
[4e	.	.	.
.	.	8dd	.
=34	=34	=34	=34
4e]	2.A	8cc)	.
.	.	(4ccc	.
4e	.	.	.
.	.	4cc	.
([4fn)	.	.	.
.	.	8ee	.
=35	=35	=35	=35
4f]	2.B	8dd)	.
.	.	(4ddd	.
4f#	.	.	.
.	.	4dd	.
4g	.	.	.
.	.	[8ffn	.
*v	*v	*	*
=36	=36	=36
4c	8ff]	.
.	4ee	>
4d	.	.
.	4b	.
4e	.	.
.	[8cc	.
=37	=37	=37
4Fn 4fn)	8cc]	.
.	4dd	.
4G 4e	.	.
.	4cc	.
4G 4d	.	.
.	8b)	.
=38	=38	=38
.	(4bqqP	.
(4c	2.ccp)	.
4G	.	.
4C)	.	.
!!LO:LB:g=z
=39:|!|:	=39:|!|:	=39:|!|:
*>D	*>D	*>D
(4c	8r	mf
.	(4ee	.
4e	.	.
.	4gg	.
4B-	.	.
.	[8dd	.
=40	=40	=40
4A	8dd]	.
.	4cc#	.
4g	.	.
.	4b-	.
4f	.	.
.	[8a	.
=41	=41	=41
4e	8a]	.
.	4g	.
4d	.	.
.	4f	.
4c#	.	.
.	[8e	.
=42	=42	=42
4d	8e]	.
.	4f	.
4A	.	.
.	4e	.
4F	.	.
.	8d)	.
=43	=43	=43
*^	*	*
4re	2.D)	8r	.
.	.	(4f	.
(4G#	.	.	.
.	.	4e	.
4A)	.	.	.
.	.	8d)	.
=44	=44	=44	=44
4rc	2.C	8r	.
.	.	(4e	.
(4G#	.	.	.
.	.	4d	.
4A)	.	.	.
.	.	8c)	.
=45	=45	=45	=45
4rc	(2BB	8r	.
.	.	(4d	.
(4G#	.	.	.
.	.	8B	.
4A)	4AA)	8cL	.
.	.	8dJ	.
*v	*v	*	*
=46	=46	=46
.	(4qqcP)	.
(4E	2Bp)	.
4EE)	.	.
4r	4r	.
!!LO:LB:g=z
=47	=47	=47
*^	*	*
4r	2.A	8r	p
.	.	(4cc	.
(4e	.	.	.
.	.	4b	.
[4f	.	.	.
.	.	8a)	.
=48	=48	=48	=48
4f]	2.G#	8r	.
.	.	(4b	.
4d#	.	.	.
.	.	4bb	.
4e)	.	.	.
.	.	8ee)	.
=49	=49	=49	=49
4r	2.Gn	8r	.
.	.	(4bb-	<
(4c#	.	.	.
.	.	4gg	.
4e)	.	.	.
.	.	8cc#)	.
=50	=50	=50	=50
4r	2.F	8r	.
.	.	(4aa	.
(4A	.	.	.
.	.	4ff	.
4d)	.	.	.
.	.	8dd)	.
=51	=51	=51	=51
4r	2.E	8r	.
.	.	(4gg#	.
(4B	.	.	.
.	.	4bbn	.
4G#	.	.	.
.	.	[8dd	.
*v	*v	*	*
=52	=52	=52
4A	8dd]	.
.	4cc	.
4B	.	.
.	4g#	>
4c	.	.
.	[8a	.
=53	=53	=53
4D 4d)	8a]	.
.	4b	.
4E 4c	.	.
.	4a	.
4E 4B	.	.
.	8g#	.
=54	=54	=54
(4A	2a)	.
4E	.	.
4AA)	4r	.
!!LO:TX:b:i:rj:t=Menuetto D.C.
==:|!	==:|!	==:|!
*-	*-	*-
!!!RDF**kern: > = above
!!!RDF**kern: < = below
!!!RDF**dynam: > = dim.
!!!PPR: Universal Edition 1
!!!PTL: Haydn Piano Sonatas, Vol. 1, No. 5
!!!YOY: 1901
!!!ONB: Stich und Druck von Jos. Eberle & Co. Wien VII. Seidengasse 3-9
!!!ONM-ue: I:5.2
!!!YEC: 2021 Craig Stuart Sapp
!!!YEM: Licence: (CC BY-NC-SA 4.0) https://creativecommons.org/licenses/by-nc-sa/4.0
!!!YER: 2021
!!!ENC: Craig Stuart Sapp
!!!END: 2008/07/05
!!!EED: Craig Stuart Sapp
!!!EEV: 2021/01/31
!!!URL: https://github.com/craigsapp/haydn-keyboard-sonatas
!!!URL-vhv: https://verovio.humdrum.org?file=haydn/sonatas/sonata12-2.krn
!!!URL-pdf: https://github.com/craigsapp/haydn-keyboard-sonatas/raw/master/reference-edition/sonata12-2.pdf
!!!title: @{OTL}, mvmt. @{OMV} (@{SCT}), UE @ONM-ue
